X:1
T:Loving Jesus Christ
T:Ira Bishop Wilson
T:Loving Jesus Christ
T:Public Domain
T:Public Domain
C:Ira Bishop Wilson
Z:Public Domain
%%score ( 1 2 ) ( 3 4 )
L:1/8
M:6/8
K:F
V:1 treble 
V:2 treble 
V:3 bass 
V:4 bass 
V:1
 [FA]2 [FA] [FA]2 [FG] | (FA)[Fd] [Fc]3 | [FA]2 F [FA]2 [EG] | F3- F2 z | [FA]2 [FA] [FA]2 [FG] | %5
w: 1.~What can make it|joy * to live?|ing Je- sus Christ;|can *|less com- fort give?|
w: 2.~What can pur- i-|fy * the heart?|ing Je- sus Christ;|can *|and trust im- part?|
w: 3.~What can drive a-|way * my care?|ing Je- sus Christ;|can *|ish my des- pair?|
w: 4.~What can quench my|self- * ish- ness?|ing Je- sus Christ;|can *|me hap- pi- ness?|
w: 5.~What can guide my|foot- * steps right?|ing Je- sus Christ;|can *|my path- way bright?|
 (FA)[Fd] [Fc]3 | [FA]2 F [FA]2 [EG] | F3- F2 z ||"^Refrain" (F2 F) (EFG) | [Gc]2 [FA] [Fc]2 z | %10
w: Lov- * ing Je-|Christ. * * *||||
w: Lov- * ing Je-|Christ. Lov- ing Je-|Christ, *|ing * Je- * *|What can make|
w: Lov- * ing Je-|Christ. * * *||||
w: Lov- * ing Je-|Christ. * * *||||
w: Lov- * ing Je-|Christ. * * *||||
 (^F2 F) (G2 =F) | [Ee]2 [Fd] ([Ec]2 B) | [FA]2 [FA] [FA]2 [FG] | (FA)[Fd] [Fc]3 | %14
w: ||||
w: my * path- *|Lov- ing Je- *|sus Christ. * *||
w: ||||
w: ||||
w: ||||
 [FA]2 F [FA]2 [EG] | F3- F2 z |] %16
w: ||
w: ||
w: ||
w: ||
w: ||
V:2
 x6 | F2 x4 | x2 F x3 | F3- F2 x | x6 | F2 x4 | x2 F x3 | F3- F2 x || c3 c3 | x6 | d3 d3 | x6 | %12
w: |Lov-|What|bound- *||sus|||||||
w: |Lov-|What|hope *||sus|sus|Lov- *|sus Christ;||way bright?||
w: |Lov-|What|ban- *||sus|||||||
w: |Lov-|What|bring *||sus|||||||
w: |Lov-|What|make *||sus|||||||
 x6 | F2 x4 | x2 F x3 | F3- F2 x |] %16
w: ||||
w: ||||
w: ||||
w: ||||
w: ||||
V:3
 [F,C]2 [F,C] [F,C]2 [F,B,] | (A,C)[F,B,] [F,A,]3 | [C,C]2 [C,A,] [C,C]2 [C,B,] | %3
w: ~ ~ ~ ~|~ * ~ ~|~ ~ ~ ~|
 [F,A,]3- [F,A,]2 z | [F,C]2 [F,C] [F,C]2 [F,B,] | (A,C)[F,B,] [F,A,]3 | %6
w: ~ *|~ ~ ~ ~|~ * ~ ~|
 [C,C]2 [C,A,] [C,C]2 [C,B,] | [F,A,]3- [F,A,]2 z || [F,A,]2 [F,A,] (G,A,)[C,B,] | %9
w: ~ ~ ~ On-|ly *|lov- ing Je- * sus|
 [F,A,]2 [F,C] [F,A,]2 z | [D,A,]2 [D,A,] [G,B,]2 [G,=B,] | [G,C]2 [G,=B,] [C,C]2 z | %12
w: On- ly lov-|ing Je- sus Christ;||
 [F,C]2 [F,C] [F,C]2 [F,B,] | (A,C)[F,B,] [F,A,]3 | [C,C]2 [C,A,] [C,C]2 [C,B,] | %15
w: |||
 [F,A,]3- [F,A,]2 z |] %16
w: |
V:4
 x6 | F,2 x4 | x6 | x6 | x6 | F,2 x4 | x6 | x6 || x3 C,2 x | x6 | x6 | x6 | x6 | F,2 x4 | x6 | %15
w: |~||||~|||Christ,|||||||
 x6 |] %16
w: |

